svgs/duotone/watch-smart.svg

<svg xmlns="http://www.w3.org/2000/svg" viewBox="0 0 384 512"><!-- Font Awesome Pro 6.0.0-alpha2 by @fontawesome - https://fontawesome.com License - https://fontawesome.com/license (Commercial License) --><defs><style>.fa-secondary{opacity:.4}</style></defs><path d="M320 80H64C28.625 80 0 108.625 0 144V368C0 403.375 28.625 432 64 432H320C355.375 432 384 403.375 384 368V144C384 108.625 355.375 80 320 80ZM258.438 311.375C253.688 317.062 246.875 320 240 320C234.562 320 229.125 318.188 224.625 314.438L176.625 274.438C171.156 269.875 168 263.125 168 256V184C168 170.75 178.75 160 192 160S216 170.75 216 184V244.75L255.375 277.562C265.562 286.062 266.938 301.188 258.438 311.375Z" class="fa-secondary"/><path d="M288 0H96C78.375 0 64 14.375 64 32V80H320V32C320 14.375 305.625 0 288 0ZM64 480C64 497.625 78.375 512 96 512H288C305.625 512 320 497.625 320 480V432H64V480ZM192 160C178.75 160 168 170.75 168 184V256C168 263.125 171.156 269.875 176.625 274.438L224.625 314.438C229.125 318.188 234.562 320 240 320C246.875 320 253.688 317.062 258.438 311.375C266.938 301.188 265.562 286.063 255.375 277.563L216 244.75V184C216 170.75 205.25 160 192 160Z" class="fa-primary"/></svg>

<svg xmlns="http://www.w3.org/2000/svg" viewBox="0 0 384 512"><!--! Font Awesome Pro 6.0.0-alpha3 by @fontawesome - https://fontawesome.com License - https://fontawesome.com/license (Commercial License) --><defs><style>.fa-secondary{opacity:.4}</style></defs><path class="fa-primary" d="M288 0H96C78.38 0 64 14.38 64 32v48h256V32C320 14.38 305.6 0 288 0zM64 480c0 17.62 14.38 32 32 32h192c17.62 0 32-14.38 32-32v-48H64V480zM192 160C178.8 160 168 170.8 168 184V256c0 7.125 3.156 13.88 8.625 18.44l48 40C229.1 318.2 234.6 320 240 320c6.875 0 13.69-2.938 18.44-8.625c8.5-10.19 7.125-25.31-3.062-33.81L216 244.8V184C216 170.8 205.3 160 192 160z"/><path class="fa-secondary" d="M320 80H64c-35.38 0-64 28.62-64 64v224c0 35.38 28.62 64 64 64h256c35.38 0 64-28.62 64-64v-224C384 108.6 355.4 80 320 80zM258.4 311.4C253.7 317.1 246.9 320 240 320c-5.438 0-10.88-1.812-15.38-5.562l-48-40C171.2 269.9 168 263.1 168 256V184C168 170.8 178.8 160 192 160s24 10.75 24 24v60.75l39.38 32.81C265.6 286.1 266.9 301.2 258.4 311.4z"/></svg>
